X: 100311
T: CAMPBELL'S HORNPIPE
C: Composed by W.B. Laybourn, Edinburgh, 1884
R: hornpipe, reel
B: K\"ohler's Violin Repository, v.3, 1885 p.221 #2
F: http://www.archive.org/details/klersviolinrepos03rugg
Z: 2012 John Chambers <jc:trillian.mit.edu>
M: C|
L: 1/8
K: D
(uA>G) | (F>A)d>c B>AG>F | E2"_>"e2- e>(fg)>e | (d>f)^g>a (^a>b)=g>e | a2d2- d>(BA)>G |
(F>A)d>c (B>A)G>F | E2e2- e>(fg>e) | (^g>a)f>d =g>Af>A | ue2ud2 d2 :||: (uAG) |
(F>A)d>c (B>A)G>F | (G>B)e>d (c>B)A>G | (F>A)d>A (G>B)d>B | (^G>B)d>B (A>c)e>c |
(d>f)af (B>g)b>g | (e>^g)b>g (^a>b)=g>e | (^g>a)f>d =g>Af>A | ue2ud2 d2 :|

%%sep 2 1 500

